!!!COM:	Bach, Johann Sebastian
!!!OMV:	Erhalt uns, Herr, bei deinem Wort
!!!OTL:	Erhalt uns, Herr, bei deinem Wort
**recip	**kern	**fb	**kern	**kern	**kern	**kern
*	*part5	*part5	*part4	*part3	*part2	*part1
*	*staff5	*	*staff4	*staff3	*staff2	*staff1
*	*I"Continuo	*	*I"Voice	*I"Voice	*I"Voice	*I"Voice
*	*I'Cont.	*	*I'V	*I'V	*I'V	*I'V
*	*clefF4	*	*clefF4	*clefGv2	*clefG2	*clefG2
*	*Trd0c0	*	*	*	*	*
*	*k[b-e-]	*	*k[b-e-]	*k[b-e-]	*k[b-e-]	*k[b-e-]
*	*M4/4	*	*M4/4	*M4/4	*M4/4	*M4/4
8	4GG	.	4GG	8B-L	4d	8gL
8	.	.	.	8cJ	.	8aJ
=2	=2	=2	=2	=2	=2	=2
8	4G	.	4G	4d	8gL	4b-
8	.	.	.	.	8fJ	.
8	4C	8 6	4C	8cL	4e-	8aL
8	.	7 5	.	8B-J	.	8gJ
8	8DL	#	8DL	4A	4d	4f#X
8	8cJ	.	8cJ	.	.	.
8	8B-L	6	8B-L	8B-L	8dL	8gL
8	8AJ	#6\	8AJ	8cJ	8f#XJ	8aJ
=3	=3	=3	=3	=3	=3	=3
8	8GL	.	8GL	8dL	4g	4b-
8	8CJ	7 5	8CJ	8e-J	.	.
8	4D	#	4D	8AL	4f#X	4a
8	.	.	.	8dJ	.	.
4	4GG;	.	4GG;	4B-;	4d;	4g;
4	4G	.	4G	4d	4g	4b-
=4	=4	=4	=4	=4	=4	=4
8	4A	6	4A	4c	8fnL	4cc
8	.	.	.	.	8gJ	.
4	4F	.	4F	4f	4a	4cc
8	8B-L	.	8B-L	4f	4b-	4dd
8	8AJ	.	8AJ	.	.	.
8	8GL	.	8GL	4g	4d	4b-
8	8FJ	.	8FJ	.	.	.
=5	=5	=5	=5	=5	=5	=5
8	8E-L	6	8E-L	4g	8gL	4cc
8	8DJ	.	8DJ	.	8b-J	.
16	4E-	6 4	4E-	16cLL	8aL	4cc
16	.	.	.	16dJ	.	.
8	.	3	.	8e-J	8gJ	.
4	4D;	#	4D;	4A;	4f#X;	4dd;
4	4G	.	4G	4B-	4g	4dd
=6	=6	=6	=6	=6	=6	=6
!!linebreak:original
8	4C	5	4C	4c	8gL	4ee-
8	.	6	.	.	8aJ	.
8	4BB-	.	4BB-	4F	4b-	8ddL
8	.	.	.	.	.	8ee-J
8	4AA	6	4AA	4F	4cc	8ffnL
8	.	5	.	.	.	8ee-J
4	4BB-	.	4BB-	4f	4b-	4dd
=7	=7	=7	=7	=7	=7	=7
8	4F	5 3	4F	8e-L	8a	8ccL
8	.	6 4	.	8d	4b-	8b-J
8	4F	5 4	4F	8e-	.	4cc
8	.	3	.	8cJ	8a	.
4	4BB-;	.	4BB-;	4d;	4f;	4b-;
8	4F#X	6	4F#X	4d	4a	4dd
8	.	5	.	.	.	.
=8	=8	=8	=8	=8	=8	=8
8	8GL	.	8GL	4d	4g	4b-
8	8GGJ	.	8GGJ	.	.	.
8	4AA	7	4AA	4c	8gL	4cc
8	.	#6\	.	.	8f#XJ	.
8	8BB-L	6	8BB-L	4d	4g	4b-
8	8CJ	.	8CJ	.	.	.
8	4D	#	4D	8dL	4f#	4a
8	.	.	.	8cJ	.	.
=9	=9	=9	=9	=9	=9	=9
8	8E-L	.	8E-L	4B-	8gL	4g
8	8CJ	7 5	8CJ	.	8e-J	.
8	4D	#	4D	8A	4d	4f#X
16	.	.	.	16BnLL	.	.
16	.	.	.	16cJJ	.	.
2	2GG;	.	2GG;	2B;	2d;	2g;
=||	=||	=||	=||	=||	=||	=||
*-	*-	*-	*-	*-	*-	*-
!!!system-decoration: s1,s2,s3,s4,s5
